packages/core/src/svgs/tokens/branded/YGG.svg

<svg width="24" height="24" viewBox="0 0 24 24" fill="none" xmlns="http://www.w3.org/2000/svg">
<path d="M18.1365 7.16756L12.2771 4.4108L6.05008 7.16756L5.66089 7.85945L5.92034 10.2918L6.58522 14.0973L8.62305 17.5405L12.0177 19.8108L14.6393 18.1729L16.8933 15.1027L18.1365 10.6919V7.16756Z" fill="url(#paint0_linear_364_12293)"/>
<path d="M12.3316 10.5567L10.4397 6.66489H6.7478C7.81266 8.44866 9.94785 12.0324 9.96399 12.0433C9.98026 12.0595 9.96941 14.5297 9.96399 15.7568L9.58561 16.5946H13.8451L13.083 15.5406V12.2865L15.8397 6.75137H12.9856L13.4992 7.91893L12.3316 10.5567Z" fill="url(#paint1_linear_364_12293)"/>
<path fill-rule="evenodd" clip-rule="evenodd" d="M11.969 22C4.29879 19.0702 3.55826 9.94589 3.99068 5.78378L12.0501 2L20.0502 5.78378C20.6987 16.2541 15.5906 20.8649 11.969 22ZM11.969 21.0054C5.06636 18.3676 4.4015 10.1513 4.78527 6.4054L12.0447 3L19.2502 6.4054C19.8339 15.8324 15.2339 19.9783 11.969 20.9999V21.0054ZM5.44474 6.84865C5.09339 10.2973 5.69879 17.8648 11.9745 20.2919C14.9421 19.3459 19.1204 15.5297 18.5906 6.84865L12.0447 3.71352L5.45015 6.84865H5.44474ZM6.27717 7.49189C6.08258 9.41616 6.22311 12.8108 7.77987 15.5676L8.64473 14.7784L9.29338 16.2595L9.83927 15.627V12.2703C9.34203 11.3676 8.45554 9.85949 7.85555 8.84864C7.64991 8.50313 7.4481 8.15537 7.25014 7.8054C7.1078 7.605 6.9407 7.42339 6.75284 7.26487L6.27717 7.49189ZM11.9745 19.2594C11.1461 18.9387 10.3769 18.482 9.69876 17.9081V17.3946L9.96905 17.6756H14.5744C13.7096 18.4865 12.7906 18.9945 11.9799 19.2594H11.9745ZM17.7528 7.49189C17.9744 11.1297 17.2555 13.7892 16.1582 15.6702L15.115 15.4649L14.542 16.8486L14.1636 16.3081V12.8919L16.7583 7.61621L16.2393 6.76217L17.7528 7.49189ZM12.0393 4.74054L12.2285 4.83244L12.0014 4.77838L11.9203 4.8L12.0393 4.74595V4.74054ZM15.3257 6.32433L12.9474 5.18379L12.0014 5.88648C11.7961 5.68109 11.3582 5.36756 11.0933 5.1946L8.7204 6.32433H10.7799L11.8068 7.29729L12.5312 8.88108C12.7204 8.54594 13.0176 7.92433 13.0448 7.67027C13.0663 7.47027 12.7096 7.11351 12.4231 6.87027C12.3697 6.82742 12.3319 6.76831 12.3154 6.70194C12.2987 6.63557 12.3043 6.56561 12.3313 6.5027C12.3852 6.3946 12.4933 6.32433 12.6069 6.32433H15.3257ZM7.00689 6.86487H10.5529L11.4717 7.58918L12.5907 9.97843L13.5312 7.98919C13.5852 7.6973 13.5906 7.09729 13.2068 6.86487H15.7961L16.3474 7.58918L13.623 12.8324V16.5081L14.1204 17.1351H10.142L9.6772 16.7081L10.3798 15.919V12.1352L7.85555 7.74054C7.66645 7.37046 7.37087 7.06547 7.00689 6.86487Z" fill="url(#paint2_linear_364_12293)"/>
<path d="M12.0013 5.33517C12.3088 5.33517 12.5581 5.0859 12.5581 4.77841C12.5581 4.47092 12.3088 4.22165 12.0013 4.22165C11.6938 4.22165 11.4446 4.47092 11.4446 4.77841C11.4446 5.0859 11.6938 5.33517 12.0013 5.33517Z" fill="#9DE6E0"/>
<path d="M15.3584 17.2811C15.6659 17.2811 15.9151 17.0318 15.9151 16.7243C15.9151 16.4168 15.6659 16.1676 15.3584 16.1676C15.0509 16.1676 14.8015 16.4168 14.8015 16.7243C14.8015 17.0318 15.0509 17.2811 15.3584 17.2811Z" fill="#9DE6E0"/>
<path d="M8.64488 17.2811C8.95238 17.2811 9.20164 17.0318 9.20164 16.7243C9.20164 16.4168 8.95238 16.1676 8.64488 16.1676C8.3374 16.1676 8.08813 16.4168 8.08813 16.7243C8.08813 17.0318 8.3374 17.2811 8.64488 17.2811Z" fill="#9DE6E0"/>
<defs>
<linearGradient id="paint0_linear_364_12293" x1="20.1062" y1="10.8522" x2="5.10195" y2="10.8522" gradientUnits="userSpaceOnUse">
<stop stop-color="#012274"/>
<stop offset="0.51" stop-color="#0035B0"/>
<stop offset="1" stop-color="#022372"/>
</linearGradient>
<linearGradient id="paint1_linear_364_12293" x1="12.0004" y1="2.00002" x2="12.0004" y2="22.2069" gradientUnits="userSpaceOnUse">
<stop stop-color="#5183E2"/>
<stop offset="1" stop-color="#1150B9"/>
</linearGradient>
<linearGradient id="paint2_linear_364_12293" x1="18.3799" y1="9.41086" x2="6.31501" y2="13.0864" gradientUnits="userSpaceOnUse">
<stop stop-color="#B29F59"/>
<stop offset="0.54" stop-color="#FFFFB0"/>
<stop offset="1" stop-color="#A7924D"/>
</linearGradient>
</defs>
</svg>

<svg xmlns="http://www.w3.org/2000/svg" width="24" height="24" fill="none" viewBox="0 0 24 24">
    <path fill="url(#YGG__a)" d="m18.137 7.168-5.86-2.757L6.05 7.168l-.39.691.26 2.433.665 3.805 2.038 3.444 3.395 2.27 2.621-1.638 2.254-3.07 1.244-4.411z"/>
    <path fill="url(#YGG__b)" d="M12.332 10.557 10.44 6.665H6.748c1.065 1.784 3.2 5.367 3.216 5.378.016.017.005 2.487 0 3.714l-.378.838h4.26l-.763-1.054v-3.254L15.84 6.75h-2.854l.513 1.168z"/>
    <path fill="url(#YGG__c)" fill-rule="evenodd" d="M11.969 22c-7.67-2.93-8.41-12.054-7.978-16.216L12.05 2l8 3.784c.648 10.47-4.46 15.08-8.082 16.216m0-.995c-6.903-2.637-7.567-10.854-7.184-14.6L12.045 3l7.205 3.405c.584 9.427-4.016 13.573-7.281 14.595zM5.445 6.85c-.352 3.448.254 11.016 6.53 13.443 2.967-.946 7.145-4.762 6.616-13.443l-6.546-3.135L5.45 6.849zm.832.643c-.194 1.924-.054 5.319 1.503 8.076l.865-.79.648 1.481.546-.632V12.27c-.497-.902-1.383-2.41-1.983-3.421a55 55 0 0 1-.606-1.044q-.215-.301-.497-.54zm5.698 11.767a8 8 0 0 1-2.276-1.35v-.514l.27.28h4.605c-.864.811-1.783 1.32-2.594 1.584zm5.778-11.767c.221 3.638-.497 6.297-1.595 8.178l-1.043-.205-.573 1.384-.378-.54v-3.417l2.594-5.276-.519-.854zM12.039 4.74l.19.091L12 4.778l-.08.022.118-.054zm3.287 1.583-2.379-1.14-.946.702c-.205-.205-.643-.518-.908-.691L8.72 6.325h2.06l1.027.972.724 1.584c.19-.335.487-.957.514-1.21.021-.2-.335-.557-.622-.8a.31.31 0 0 1-.092-.368.32.32 0 0 1 .276-.179zm-8.32.54h3.547l.919.725 1.119 2.39.94-1.99c.054-.292.06-.892-.324-1.124h2.59l.55.724-2.724 5.243v3.676l.497.627h-3.978l-.465-.427.703-.789v-3.784L7.856 7.741a2.1 2.1 0 0 0-.85-.876" clip-rule="evenodd"/>
    <path fill="#9DE6E0" d="M12.001 5.335a.557.557 0 1 0 0-1.113.557.557 0 0 0 0 1.113m3.357 11.946a.557.557 0 1 0 0-1.113.557.557 0 0 0 0 1.113m-6.713 0a.557.557 0 1 0 0-1.113.557.557 0 0 0 0 1.113"/>
    <defs>
        <linearGradient id="YGG__a" x1="20.106" x2="5.102" y1="10.852" y2="10.852" gradientUnits="userSpaceOnUse">
            <stop stop-color="#012274"/>
            <stop offset=".51" stop-color="#0035B0"/>
            <stop offset="1" stop-color="#022372"/>
        </linearGradient>
        <linearGradient id="YGG__b" x1="12" x2="12" y1="2" y2="22.207" gradientUnits="userSpaceOnUse">
            <stop stop-color="#5183E2"/>
            <stop offset="1" stop-color="#1150B9"/>
        </linearGradient>
        <linearGradient id="YGG__c" x1="18.38" x2="6.315" y1="9.411" y2="13.086" gradientUnits="userSpaceOnUse">
            <stop stop-color="#B29F59"/>
            <stop offset=".54" stop-color="#FFFFB0"/>
            <stop offset="1" stop-color="#A7924D"/>
        </linearGradient>
    </defs>
</svg>
